web/icons/gps/cards.svg

<svg width="256" height="256" fill="none" xmlns="http://www.w3.org/2000/svg"><path d="M88.5 188.5v-9h71v-112h9v121h-80Z" fill="#775EBF"/><path d="M108.5 208.5v-9h71v-112h9v121h-80Z" fill="#775EBF"/><path d="M68.5 168.5v-121h80v121h-80Z" fill="#775EBF"/><path fill-rule="evenodd" clip-rule="evenodd" d="M0 50C0 22.386 22.386 0 50 0h156c27.614 0 50 22.386 50 50v156c0 27.614-22.386 50-50 50H50c-27.614 0-50-22.386-50-50V50Zm57.5-13.5v143h20v20h20v20h102v-143h-20v-20h-20v-20h-102Z" fill="#775EBF"/></svg>

<svg width="256" height="256" viewBox="0 0 256 256" fill="none" xmlns="http://www.w3.org/2000/svg">
<path d="M88.5 188.5V179.5H159.5V67.5H168.5V188.5L88.5 188.5Z" fill="#775EBF"/>
<path d="M108.5 208.5V199.5H179.5V87.5H188.5L188.5 208.5L108.5 208.5Z" fill="#775EBF"/>
<path d="M68.5 168.5L68.5 47.5H148.5V168.5H68.5Z" fill="#775EBF"/>
<path fill-rule="evenodd" clip-rule="evenodd" d="M0 50C0 22.386 22.386 0 50 0H206C233.614 0 256 22.386 256 50V206C256 233.614 233.614 256 206 256H50C22.386 256 0 233.614 0 206V50ZM57.5 36.5L57.5 179.5L77.5 179.5V199.5L97.5 199.5V219.5L199.5 219.5L199.5 76.5H179.5V56.5H159.5V36.5H57.5Z" fill="#775EBF"/>
</svg>
